src/actions/16/symbol-smaller.svg

<svg width="16" height="16" version="1.1" xmlns="http://www.w3.org/2000/svg">
 <rect x="7.9102e-7" y="2.4414e-7" width="16" height="16" color="#000000" fill-opacity="0" stroke-width=".98681"/>
 <ellipse cx="8" cy="8" rx="6.5778" ry="6.689" color="#000000" fill="none" stroke="#c80000" stroke-dasharray="0.999999, 0.999999" stroke-linejoin="round" stroke-miterlimit="0"/>
 <path d="m12.367 8a4.3669 4.4431 0 0 1-4.3669 4.4431 4.3669 4.4431 0 0 1-4.3669-4.4431 4.3669 4.4431 0 0 1 4.3669-4.4431 4.3669 4.4431 0 0 1 4.3669 4.4431z" color="#000000" fill="#3daee9" fill-rule="evenodd" opacity=".35" stroke-linejoin="round" stroke-miterlimit="0" style="-inkscape-stroke:none"/>
 <path d="m8 3.0566c-2.6867 0-4.8672 2.2239-4.8672 4.9434 0 2.7194 2.1805 4.9434 4.8672 4.9434 2.6867 0 4.8672-2.2239 4.8672-4.9434 0-2.7194-2.1805-4.9434-4.8672-4.9434zm0 1c2.1368 0 3.8672 1.7551 3.8672 3.9434 0 2.1883-1.7303 3.9434-3.8672 3.9434s-3.8672-1.7551-3.8672-3.9434c0-2.1883 1.7303-3.9434 3.8672-3.9434z" color="#000000" fill="#363636" fill-rule="evenodd" stroke-linejoin="round" stroke-miterlimit="0" style="-inkscape-stroke:none"/>
</svg>

<svg xmlns="http://www.w3.org/2000/svg" width="16" height="16">
    <path fill="none" d="M0 0h16v16H0z" color="#000"/>
    <ellipse cx="8" cy="8" fill="none" stroke="#d98c8c" stroke-dasharray="0.999999, 0.999999" stroke-linejoin="round" stroke-miterlimit="0" color="#000" rx="6.578" ry="6.689"/>
    <path fill="#a0b6cb" fill-rule="evenodd" d="M12.367 8A4.367 4.443 0 0 1 8 12.443 4.367 4.443 0 0 1 3.633 8 4.367 4.443 0 0 1 8 3.557 4.367 4.443 0 0 1 12.367 8z" color="#000" opacity=".35" style="-inkscape-stroke:none"/>
    <path fill="#050505" fill-opacity=".7" fill-rule="evenodd" d="M8 3.057C5.313 3.057 3.133 5.28 3.133 8c0 2.72 2.18 4.943 4.867 4.943S12.867 10.72 12.867 8c0-2.72-2.18-4.943-4.867-4.943zm0 1c2.137 0 3.867 1.755 3.867 3.943S10.137 11.943 8 11.943 4.133 10.188 4.133 8 5.863 4.057 8 4.057z" color="#000" style="-inkscape-stroke:none"/>
</svg>
